X:104
T:Tomorrow Morning
R:hornpipe
Z:id:hn-hornpipe-104
M:C|
L:1/8
K:D
(3gfe|dAFA defd|ecAc efge|fafd Bded|c2A2 A2fe|
dAFA defd|ecAc efge|fafd Acec|d2dc d2:|
|:fg|afdf a2gf|gece g2ag|fafd Bded|c2A2 A2fe|
dAFA defd|ecAc efge|fafd Acec|d2dc d2:|
P:variations
|:(3gfe|dAFA dAfA|ecAc eAgA|(3fga fd Bged|cdBc A2 (3ABc|
dAFA defd|ecAc efge|fafd Acec|d2dc d2:|
|:fg|afdf a2gf|gece g2fe|fafd Bged|ceBe A2 (3gfe|
dAFA defd|ecAc efge|(3fga fd Acec|d2dc d2:|

